src/ClientApp/src/assets/civic_labs.svg

<svg width="285" height="50" viewBox="0 0 285 50" fill="none" xmlns="http://www.w3.org/2000/svg">
<path d="M36.09 36.449L40.6138 45.4966C40.6138 45.4966 35.3863 49.8194 25.2831 49.8194C12.1138 49.7691 0 39.0627 0 25.6923C0 12.322 12.0635 1.41455 25.2831 1.41455C35.3863 1.41455 40.6138 5.73731 40.6138 5.73731L36.09 14.7849C33.3999 12.928 30.2106 11.9292 26.9418 11.9199C16.2355 11.9199 11.5609 19.359 11.5609 25.5918C11.5609 31.8246 16.2355 39.3141 26.9418 39.3141C30.2106 39.3047 33.3999 38.3059 36.09 36.449Z" fill="black"/>
<path d="M55.7431 7.95026C55.7431 9.12335 55.3952 10.2701 54.7435 11.2455C54.0917 12.2209 53.1654 12.9811 52.0816 13.43C50.9978 13.8789 49.8053 13.9964 48.6547 13.7675C47.5042 13.5387 46.4473 12.9738 45.6178 12.1443C44.7883 11.3148 44.2234 10.2579 43.9946 9.10739C43.7657 7.95684 43.8832 6.76427 44.3321 5.68048C44.781 4.5967 45.5412 3.67036 46.5166 3.01863C47.492 2.3669 48.6388 2.01904 49.8118 2.01904C51.3849 2.01904 52.8935 2.64394 54.0058 3.75626C55.1182 4.86858 55.7431 6.37721 55.7431 7.95026ZM44.6849 48.9662H54.6875V19.9132H44.6849V48.9662Z" fill="black"/>
<path d="M103.696 7.95026C103.696 9.12335 103.348 10.2701 102.696 11.2455C102.045 12.2209 101.118 12.9811 100.035 13.43C98.9507 13.8789 97.7581 13.9964 96.6076 13.7675C95.4571 13.5387 94.4002 12.9738 93.5707 12.1443C92.7412 11.3148 92.1763 10.2579 91.9475 9.10739C91.7186 7.95684 91.8361 6.76427 92.285 5.68048C92.7339 4.5967 93.4941 3.67036 94.4695 3.01863C95.4449 2.3669 96.5916 2.01904 97.7647 2.01904C99.3378 2.01904 100.846 2.64394 101.959 3.75626C103.071 4.86858 103.696 6.37721 103.696 7.95026ZM92.6377 48.9662H102.64V19.9132H92.6377V48.9662Z" fill="black"/>
<path d="M118.222 34.3883C118.202 35.3166 118.366 36.2397 118.705 37.1044C119.043 37.9691 119.549 38.7583 120.194 39.4264C120.839 40.0946 121.609 40.6285 122.462 40.9975C123.314 41.3664 124.23 41.5631 125.159 41.5761C126.881 41.6082 128.576 41.1365 130.034 40.219L133.452 47.1555C133.452 47.1555 130.185 49.7693 123.701 49.7693C115.307 49.7693 107.616 42.9836 107.616 34.4888C107.616 25.9941 115.257 19.0576 123.701 19.0576C130.135 19.0576 133.452 21.7719 133.452 21.7719L130.034 28.6079C128.576 27.6904 126.881 27.2187 125.159 27.2507C124.235 27.2639 123.322 27.4589 122.473 27.8247C121.625 28.1905 120.856 28.7199 120.212 29.3827C119.568 30.0455 119.061 30.8287 118.719 31.6876C118.378 32.5465 118.209 33.4642 118.222 34.3883Z" fill="black"/>
<path d="M163.561 39.6161H179.646V48.9653H152.905V2.26953H163.561V39.6161Z" fill="black"/>
<path d="M197.187 19.1079C201.108 19.1079 204.325 20.4148 206.687 22.727V19.9121H216.69V48.9651H206.788V45.6476H206.687C205.476 46.9552 204.006 47.9968 202.37 48.7063C200.735 49.4158 198.97 49.7778 197.187 49.7693C188.693 49.7693 182.761 42.9333 182.761 34.4386C182.761 25.9439 188.693 19.1079 197.187 19.1079ZM200.203 41.2746C204.124 41.2746 206.939 38.4598 206.939 34.4889C206.939 32.6959 206.226 30.9763 204.959 29.7084C203.691 28.4406 201.971 27.7283 200.178 27.7283C198.385 27.7283 196.666 28.4406 195.398 29.7084C194.13 30.9763 193.418 32.6959 193.418 34.4889C193.418 38.4095 196.132 41.2746 200.203 41.2746Z" fill="black"/>
<path d="M242.98 49.7694C241.197 49.7779 239.432 49.416 237.797 48.7064C236.161 47.9969 234.691 46.9553 233.48 45.6477H233.379V48.9149H223.477V0.309082H233.48V22.7271C235.842 20.4149 239.059 19.108 242.98 19.108C251.474 19.108 257.406 25.9943 257.406 34.489C257.406 42.9837 251.474 49.7694 242.98 49.7694ZM239.964 27.6028C239.067 27.5953 238.177 27.7699 237.35 28.1159C236.522 28.4619 235.773 28.9722 235.148 29.6159C234.523 30.2595 234.035 31.0233 233.714 31.8609C233.393 32.6985 233.245 33.5925 233.279 34.489C233.279 38.4599 236.093 41.2747 240.014 41.2747C243.935 41.2747 246.8 38.4096 246.8 34.489C246.834 33.5839 246.683 32.6814 246.356 31.8369C246.028 30.9925 245.531 30.224 244.896 29.5789C244.26 28.9337 243.499 28.4256 242.659 28.0857C241.82 27.7459 240.92 27.5815 240.014 27.6028H239.964Z" fill="black"/>
<path d="M284.447 21.3698L281.18 27.9544C281.18 27.9544 277.812 26.1449 274.746 26.1449C272.534 26.1449 271.63 26.547 271.63 27.9042C271.63 29.2613 273.691 29.8645 276.154 30.6687C279.974 31.8751 285 33.9862 285 39.9677C285 48.5127 277.209 49.8698 271.278 49.8698C267.197 49.9228 263.227 48.5345 260.069 45.9492L264.14 39.1132C264.14 39.1132 268.111 42.4307 271.328 42.4307C272.736 42.4307 274.445 42.2799 274.445 40.3195C274.445 38.3592 271.278 38.0576 268.011 36.3486C264.743 34.6396 262.13 32.7799 262.13 28.4068C262.13 22.4756 267.156 19.0576 274.796 19.0576C278.147 19.0891 281.446 19.8796 284.447 21.3698Z" fill="black"/>
<path d="M58.8601 21.3711H86.0532V48.514L58.8601 21.3711Z" fill="#FFCC00"/>
</svg>

<svg width="285" height="50" fill="none" xmlns="http://www.w3.org/2000/svg"><path d="M36.09 36.449l4.524 9.048s-5.228 4.322-15.33 4.322C12.113 49.77 0 39.063 0 25.692 0 12.322 12.063 1.415 25.283 1.415c10.103 0 15.33 4.322 15.33 4.322l-4.523 9.048a16.185 16.185 0 00-9.148-2.865c-10.707 0-15.381 7.439-15.381 13.672 0 6.233 4.674 13.722 15.38 13.722a16.186 16.186 0 009.149-2.865zM55.743 7.95a5.932 5.932 0 11-11.863 0 5.932 5.932 0 0111.863 0zM44.685 48.966h10.002V19.913H44.685v29.053zM103.696 7.95a5.93 5.93 0 01-7.088 5.817 5.93 5.93 0 117.088-5.817zM92.638 48.966h10.002V19.913H92.638v29.053zM118.222 34.388c-.02.929.144 1.852.483 2.716a7.026 7.026 0 003.757 3.894 7.033 7.033 0 002.697.578 8.845 8.845 0 004.875-1.357l3.418 6.937s-3.267 2.613-9.751 2.613c-8.394 0-16.085-6.785-16.085-15.28s7.641-15.431 16.085-15.431c6.434 0 9.751 2.714 9.751 2.714l-3.418 6.836a8.846 8.846 0 00-4.875-1.357 7.043 7.043 0 00-4.947 2.132 7.049 7.049 0 00-1.99 5.005zM163.561 39.616h16.085v9.35h-26.741V2.27h10.656v37.346zM197.187 19.108c3.921 0 7.138 1.307 9.5 3.619v-2.815h10.003v29.053h-9.902v-3.317h-.101a12.855 12.855 0 01-9.5 4.121c-8.494 0-14.426-6.836-14.426-15.33 0-8.495 5.932-15.331 14.426-15.331zm3.016 22.167c3.921 0 6.736-2.815 6.736-6.786a6.764 6.764 0 00-6.761-6.76 6.76 6.76 0 00-6.76 6.76c0 3.92 2.714 6.786 6.785 6.786zM242.98 49.77a12.864 12.864 0 01-9.5-4.122h-.101v3.267h-9.902V.309h10.003v22.418c2.362-2.312 5.579-3.619 9.5-3.619 8.494 0 14.426 6.886 14.426 15.381 0 8.495-5.932 15.28-14.426 15.28zm-3.016-22.167a6.632 6.632 0 00-6.25 4.258 6.64 6.64 0 00-.435 2.628c0 3.97 2.814 6.786 6.735 6.786 3.921 0 6.786-2.865 6.786-6.786a6.653 6.653 0 00-.444-2.652 6.636 6.636 0 00-6.342-4.234h-.05zM284.447 21.37l-3.267 6.584s-3.368-1.81-6.434-1.81c-2.212 0-3.116.403-3.116 1.76s2.061 1.96 4.524 2.765c3.82 1.206 8.846 3.317 8.846 9.299 0 8.545-7.791 9.902-13.722 9.902a17.34 17.34 0 01-11.209-3.92l4.071-6.837s3.971 3.318 7.188 3.318c1.408 0 3.117-.151 3.117-2.111 0-1.96-3.167-2.262-6.434-3.971-3.268-1.71-5.881-3.57-5.881-7.942 0-5.931 5.026-9.35 12.666-9.35 3.351.032 6.65.823 9.651 2.313z" fill="#000"/><path d="M58.86 21.371h27.193v27.143L58.86 21.371z" fill="#FC0"/></svg>
